shader phase_shader(
    float x=0., float y=0.,
   output float r=0., output float phi=0)
{
    float pi = 3.141592654;

    
    r = sqrt(x*x+y*y);
    phi = atan2(y,x)/2/pi+0.5;
    if (phi<0){
        phi=phi+1;
    }
   
}